X: 18
T: Good Christian Men Rejoice
P: piffero primo c0044
O: German 14th cent
%R: waltz
F: http://ancients.sudburymuster.org/mus/col/pdf/carolsF.pdf
Z: 2020 John Chambers <jc:trillian.mit.edu>
M: 3/4
L: 1/4
K: G
% - - - - - - - - - -
G |\
G2G | B2c | d2e | d2d | G2G | B2c | d2e | d3 ||\
d2e | d2c | B2A | G3  | G3  | G3  | A2A | B2A |
G2A | B3 || d2e | d2c | B2A | G3  | A2A | B3A |\
G2A | B3 || E2E | F2F | G3  | d3  | B2B | A2A |\
G3- | Gz2 |]
%% - - - - - - - - - -


